img/sys/3.svg

<svg width="75" height="25" viewBox="0 0 75 25" fill="none" xmlns="http://www.w3.org/2000/svg">
<g clip-path="url(#clip0_1_86)">
<path d="M48.688 0.536987C43.4392 0.536987 38.7484 3.25499 38.7484 8.27556C38.7484 14.0338 47.0674 14.4315 47.0674 17.3247C47.0674 18.5429 45.6703 19.6332 43.2831 19.6332C39.8961 19.6332 37.3646 18.1097 37.3646 18.1097L36.2812 23.1769C36.2812 23.1769 39.1975 24.4638 43.0692 24.4638C48.8079 24.4638 53.3241 21.6128 53.3241 16.5057C53.3241 10.4207 44.9703 10.0348 44.9703 7.3501C44.9703 6.3958 46.1173 5.35059 48.4971 5.35059C51.1826 5.35059 53.373 6.45863 53.373 6.45863L54.4334 1.5652C54.4334 1.5652 52.0499 0.536987 48.688 0.536987ZM0.664267 0.906582L0.536987 1.64503C0.536987 1.64503 2.74515 2.04863 4.73427 2.85435C7.29541 3.77759 7.47745 4.31572 7.90887 5.98481L12.6086 24.0824H18.909L28.6148 0.906582H22.3292L16.0925 16.6639L13.5477 3.30673C13.3146 1.77809 12.132 0.905843 10.6853 0.905843H0.665007L0.664267 0.906582ZM31.1426 0.906582L26.212 24.0824H32.206L37.1189 0.906582H31.1426ZM64.5729 0.906582C63.1277 0.906582 62.3618 1.67977 61.8001 3.03027L53.0185 24.0824H59.3041L60.5199 20.5735H68.1774L68.9167 24.0824H74.463L69.6249 0.906582H64.5729ZM65.3906 7.16826L67.2539 15.8648H62.2626L65.3906 7.16826Z" fill="#4F4255"/>
</g>
<defs>
<clipPath id="clip0_1_86">
<rect width="74" height="24" fill="white" transform="translate(0.5 0.5)"/>
</clipPath>
</defs>
</svg>

<svg width="75" height="25" fill="none" xmlns="http://www.w3.org/2000/svg"><g clip-path="url(#clip0_1_86)"><path d="M48.688.537c-5.249 0-9.94 2.718-9.94 7.739 0 5.758 8.32 6.155 8.32 9.049 0 1.218-1.398 2.308-3.785 2.308-3.387 0-5.918-1.523-5.918-1.523l-1.084 5.067s2.916 1.287 6.788 1.287c5.739 0 10.255-2.851 10.255-7.958 0-6.085-8.354-6.471-8.354-9.156 0-.954 1.147-2 3.527-2 2.686 0 4.876 1.109 4.876 1.109l1.06-4.894S52.05.537 48.688.537zM.664.907l-.127.738s2.208.404 4.197 1.21c2.561.923 2.743 1.46 3.175 3.13l4.7 18.097h6.3L28.615.907h-6.286l-6.236 15.757-2.545-13.357C13.315 1.778 12.132.906 10.685.906H.665zm30.479 0l-4.931 23.175h5.994L37.119.907h-5.976zm33.43 0c-1.445 0-2.211.773-2.773 2.123l-8.78 21.052h6.285l1.216-3.509h7.657l.74 3.51h5.546L69.625.906h-5.052zm.818 6.261l1.863 8.697h-4.991l3.128-8.697z" fill="#4F4255"/></g><defs><clipPath id="clip0_1_86"><path fill="#fff" transform="translate(.5 .5)" d="M0 0h74v24H0z"/></clipPath></defs></svg>
